!!!OTL-incipit: ANDRES, LIEBER SCHUTZPATRON
!!!ARE: Europa, Mitteleuropa, Deutschland, Pommern
!!!SCT: Z0146
!!!TXL: @@DE
!!!YEM: Copyright 1995, estate of Helmut Schaffrath.
**kern	**text
*ICvox	*
!! Mixed meters:  3/4; 4/4
*M3/4	*
*k[b-]	*
*F:	*
=1	=1
!LO:TX:a:t=Mündlich in Pommern.	!
!LO:TX:a:t=Altes Volkslied mit Echo.	!
{8f	An-
8a	-dres,
8cc	lie-
8a	-ber
8f	Schutʒpa-
8ff	.
=2	=2
(4ff	-tron,
4ee;)}	.
{8ee	gieb
8ff	mir
=3	=3
4gg	doch
4b-	nur
16b-L	ei-
16ddJ	.
16ccL	-nen
16b-J	.
=4	=4
(4b-/	Mann!
4a;)}	.
{16b-L	Rä-
16aJ	.
16gL	-che
16fJ	.
=5	=5
4dd	end-
4cc	-lich
16b-L	mei-
16aJ	.
16gL	-nen
16fJ	.
=6	=6
(4f	Hohn,
4e)}	.
{8c	ſieh
8e	mein
=7	=7
8g	ſchö-
8e	-nes
8cL	Al-
8eJ	.
8gL	-ter
8b-J	.
=8	=8
(4b-/	an!
4a;)}	.
{16b-L	krieg
16aJ	.
16gL	ich
16fJ	.
=9	=9
4dd	ei-
4cc	-nen
8dd	o-
8gg	-der
=10	=10
4.ff	kei-
16eeL	.
16ddJ	.
4cc;}	-nen?
=11	=11
*M4/4	*
*met(c)	*
!LO:TX:a:t=(Echo)	!
{2.g	Ei-
8aL	.
8b-J	.
=12	=12
2.a;	-nen!
4r}	.
==	==
!!!AGN: Erzaehlung, lustige Romanze, Frage- Antwort - Lied, Echo, Tod
!!!ONB: ESAC (Essen Associative Code) Database: ZUCCAL
!!!AMT: irregular
!!!AIN: vox
!!!EED: Helmut Schaffrath
!!!EEV: 1.0
!!!GTL: II. Erzahlungen, lustige Romanzen, Kinder-Lieder und episch-lyrische Volks-Lieder.
!!!URL-scan: https://www.digitale-sammlungen.de/de/view/bsb11160571?page=275
!!!ENC: Anna Maria Matuszewska
!!!EEV: 2025/01/28
*-	*-
